flaticon/grooming/toothpaste-2.svg

<svg xmlns="http://www.w3.org/2000/svg" width="32" height="32" viewBox="0 0 24 24">
    <path d="M14.28125.121094C14.238281.0390625 14.121094 0 14 0L4.398438 0C4.28125 0 4.160156.0390625 4.078125.121094 4.039062.199219 4 .320312 4 .441406L6 18.441406C6.039062 18.640625 6.199219 18.800781 6.398438 18.800781L6.46875 18.800781 7.28125 22.519531C7.519531 23.398438 8.320312 24 9.238281 24 10.160156 24 10.960938 23.398438 11.199219 22.480469L11.929688 18.839844 12 18.839844C12.199219 18.839844 12.359375 18.679688 12.398438 18.480469L14.398438.441406C14.398438.320312 14.320312.199219 14.28125.121094zM13.335938 2.808594C13.304688 2.804688 13.273438 2.800781 13.238281 2.800781L12.800781 2.800781 12.800781.800781 13.558594.800781zM11.199219 2.800781L11.199219.800781 12 .800781 12 2.800781zM9.601562 2.800781L9.601562.800781 10.398438.800781 10.398438 2.800781zM8 2.800781L8 .800781 8.800781.800781 8.800781 2.800781zM6.398438 2.800781L6.398438.800781 7.199219.800781 7.199219 2.800781zM5.601562.800781L5.601562 2.800781 5.199219 2.800781C5.152344 2.800781 5.105469 2.808594 5.066406 2.820312L4.839844.800781zM9.199219 23.199219C8.679688 23.199219 8.160156 22.839844 8.039062 22.320312L7.882812 21.601562 10.5 21.601562 10.359375 22.28125C10.238281 22.839844 9.761719 23.199219 9.199219 23.199219zM10.667969 20.800781L7.710938 20.800781 7.28125 18.804688 11.074219 18.832031zM11.644531 18C11.628906 18 11.613281 18 11.601562 18L6.800781 18C6.796875 18 6.796875 18 6.796875 18L6.761719 18 6.269531 13.601562 9.601562 13.601562C9.839844 13.601562 10 13.398438 10 13.199219L10 7.199219C10 6.960938 9.839844 6.800781 9.601562 6.800781L5.511719 6.800781 5.152344 3.597656C5.167969 3.597656 5.183594 3.601562 5.199219 3.601562L13.238281 3.601562C13.242188 3.601562 13.246094 3.601562 13.25 3.601562zM5.640625 7.601562L9.199219 7.601562 9.199219 12.800781 6.28125 12.800781zM19.601562 18L14.800781 18C14.558594 18 14.398438 18.160156 14.398438 18.398438L14.398438 21.199219C14.398438 22.761719 15.640625 24 17.199219 24 18.761719 24 20 22.761719 20 21.199219L20 18.398438C20 18.160156 19.839844 18 19.601562 18zM19.199219 21.199219C19.199219 22.320312 18.320312 23.199219 17.199219 23.199219 16.078125 23.199219 15.199219 22.320312 15.199219 21.199219L15.199219 18.800781 19.199219 18.800781zM19.199219 21.199219"/>
</svg>

<svg xmlns="http://www.w3.org/2000/svg" width="32" height="32" viewBox="0 0 24 24">
    <path d="M14.281.121C14.238.04 14.121 0 14 0H4.398a.455.455 0 0 0-.32.121.758.758 0 0 0-.078.32l2 18c.04.2.2.36.398.36h.07l.813 3.719A2.015 2.015 0 0 0 9.238 24c.922 0 1.723-.602 1.961-1.52l.73-3.64H12c.2 0 .36-.16.398-.36l2-18.039c0-.12-.078-.242-.117-.32zm-.945 2.688c-.031-.004-.063-.008-.098-.008h-.437v-2h.758zM11.199 2.8v-2H12v2zm-1.597 0v-2h.796v2zM8 2.8v-2h.8v2zm-1.602 0v-2H7.2v2zm-.796-2v2h-.403a.474.474 0 0 0-.133.02L4.84.8zm3.597 22.398c-.52 0-1.039-.36-1.16-.879l-.156-.718H10.5l-.14.68c-.122.558-.598.917-1.16.917zm1.469-2.398H7.711l-.43-1.996 3.793.027zM11.645 18H6.762l-.492-4.398h3.332a.403.403 0 0 0 .398-.403v-6c0-.238-.16-.398-.398-.398h-4.09l-.36-3.203c.016 0 .032.004.047.004H13.25zM5.64 7.602h3.558V12.8H6.281zm0 0M19.602 18H14.8c-.242 0-.403.16-.403.398V21.2c0 1.563 1.243 2.801 2.801 2.801C18.762 24 20 22.762 20 21.2v-2.802c0-.238-.16-.398-.398-.398zm-.403 3.2c0 1.12-.879 2-2 2-1.12 0-2-.88-2-2v-2.4h4zm0 0"/>
</svg>
